X: 188
T: 189. Herr Jesu Christ, wahr Mensch und Gott
N: Derived from chor189.krn
C: Johann Sebastian Bach
%%abc-version 2.0
%%abcx-abcm2ps-target-version 5.9.1 (29 Sep 2008)
%%abc-creator hum2abc beta
%%abcx-conversion-date 2019/03/11 17:28:18
%%abc-edited-by Craig Stuart Sapp
%%humdrum-veritas 1171871203
%%humdrum-veritas-data 3995723487
%%
%%barnumbers 0
L: 1/4
M: C
%%staves [1 2 3 4]
V: 1 clef=treble
V: 2 clef=treble
V: 3 clef=treble-8
V: 4 clef=bass
K: A
[V:1] A [I:setbarnb 1]| 
[V:2] E | 
[V:3] c/d/ | 
[V:4] A,,/B,,/ | 
[V:1] AAFB | 
[V:2] E/D/ C/B,/A,F/G/- | 
[V:3] eed^d | 
[V:4] C,/B,,/A,,D,/C,/B,, | 
[V:1] AA!fermata!Gc | 
[V:2] G/F//E//F!fermata!EE | 
[V:3] eB!fermata!BA | 
[V:4] C,^D,!fermata!E,A,- | 
[V:1] ccfe | 
[V:2] AAAG | 
[V:3] efBB | 
[V:4] A,/G,/ F,/E,/^D,E,/F,/ | 
[V:1] e^d!fermata!ec | 
[V:2] GF/A/ A/!fermata!G/G | 
[V:3] BB!fermata!Bc/B/ | 
[V:4] G,/A,/B,!fermata!E,^E, | 
[V:1] cc=dc | 
[V:2] FEF=G | 
[V:3] A/G/^A-A/B/- B/^A/ | 
[V:4] F,=G,F,=E, | 
[V:1] B^A!fermata!Bc | 
[V:2] F/=G/ F/E/- E/!fermata!D/A | 
[V:3] B/e/c!fermata!Be | 
[V:4] D,/E,/F,!fermata!B,,A,, | 
[V:1] ccBA | 
[V:2] AA-A/G/- G/F/ | 
[V:3] eff/c/c | 
[V:4] A,/G,/F,/E,/ ^D,/^E,/F, | 
[V:1] AG!fermata!A |]  
[V:2] =E/F/- F/E/!fermata!E |]  
[V:3] c/B/ B/c//d//!fermata!c |]  
[V:4] C,/=D,/=E,!fermata!A,, |]  



